X: 09051
T: JACQUELINE'S JIG
C: Bob McQuillen 24 Mar 92
B: Bob's Note Book 9 #51
R: jig
Z: 2018 John Chambers <jc:trillian.mit.edu>
M: 6/8
L: 1/8
K: G
D \
| GBd g2g | ege dBA | GBd g2g | eag fed |
| gbg dBd | cde d2d | gdB AGA | BGG G2 :|
|: A \
| BGB ded | BGB AGE | DGB d2d | edB ABd |
| gab aba | bge dBd | g2g aga | bgg g2 :|
%%begintext align
%% Jacqueline Gilman, from
%% Canterbury, is one half of that intrepid pair called
%% "Two Fiddles", (the other half being Dudley Laufman),
%% and she's so nice to me whenever we meet or play
%% together that I thought she rated her own tune. So
%% here it is, Jackie, and I hope you like it!
%%endtext

%%sep 1 1 500

%%sep 1 1 500

